X: 41275
T: Tulla Moondance
R: reel
M: 4/4
K: Ddorian
|:ED D2 EDCD|EDDC EGAG|EDD2 EDCG,|1 A,CCD EGAG:|2 A,CCD EGAc||
A3d ecdc|A2 dB cAGc|A3d ecdc|AcBd cBGc|
A3d eddc|eded cBcd|ecBc dcBe|GAdB cBAG||

